assets/Sunflower/Flat/sunflower_flat.svg

<svg width="32" height="32" viewBox="0 0 32 32" fill="none" xmlns="http://www.w3.org/2000/svg">
<path d="M17.1065 19.7502H15.1065V27.9782C14.3521 26.1341 12.5471 24.8203 10.4365 24.8203H8.36649C8.20649 24.8203 8.08649 24.9503 8.08649 25.1003V25.5203C8.08649 27.9203 10.0365 29.8703 12.3465 29.8903L15.2265 29.9003C15.2606 29.9003 15.2935 29.8932 15.3237 29.8802H17.1065V29.8737C17.1425 29.8907 17.183 29.9003 17.2265 29.9003H19.2965C21.9965 29.9003 24.1965 27.7503 24.3365 25.0903C24.3465 24.9403 24.2265 24.8203 24.0865 24.8203L21.2065 24.8303C19.2876 24.8469 17.6172 26.1952 17.1065 28.027V19.7502Z" fill="#44911B"/>
<path d="M23.8465 11.7803C25.7565 12.3103 27.0765 13.3803 26.9465 14.4503C26.8165 15.5203 25.2865 16.2303 23.3165 16.2903C24.6365 17.7703 25.1665 19.3903 24.4665 20.2203C23.7765 21.0403 22.1065 20.8003 20.4265 19.7703C20.7265 21.7303 20.2765 23.3803 19.2465 23.6903C18.2165 24.0003 16.9465 22.8903 16.0965 21.1103C15.2765 22.9203 14.0165 24.0603 12.9765 23.7603C11.9465 23.4603 11.4765 21.8303 11.7365 19.8803C10.0665 20.9503 8.3865 21.2203 7.6765 20.4003C6.9665 19.5803 7.4665 17.9703 8.7465 16.4703C6.7565 16.4503 5.2065 15.7603 5.0565 14.6903C4.9065 13.6203 6.2065 12.5403 8.0965 11.9803C6.4365 10.8903 5.5165 9.46034 5.9665 8.49034C6.4365 7.49034 8.1765 7.29034 10.1165 7.91034C9.2865 6.06034 9.2765 4.30034 10.2065 3.72034C11.0965 3.16034 12.5865 3.87034 13.8465 5.32034C14.1865 3.43034 15.0965 2.07034 16.1565 2.10034C17.1365 2.11034 17.9565 3.31034 18.2865 5.01034C19.4765 3.74034 20.8165 3.15034 21.6565 3.66034C22.5765 4.21034 22.6065 5.90034 21.8465 7.72034C23.7365 7.12034 25.4265 7.30034 25.8965 8.27034C26.3665 9.23034 25.4765 10.6703 23.8465 11.7803Z" fill="#FCD53F"/>
<path d="M16 19C19.2369 19 21.861 16.376 21.861 13.139C21.861 9.90212 19.2369 7.27808 16 7.27808C12.7631 7.27808 10.139 9.90212 10.139 13.139C10.139 16.376 12.7631 19 16 19Z" fill="#8C5543"/>
<path d="M21.1183 10.2814L20.3181 11.0815L21.435 12.1983L21.7304 11.9029C21.8159 12.3014 21.861 12.715 21.861 13.139C21.861 13.4242 21.8406 13.7046 21.8012 13.9788L21.435 13.6126L20.3206 14.7269L21.2805 15.6852C20.7494 16.7846 19.8851 17.6929 18.8186 18.279L17.7918 17.2557L16.6857 18.3618L17.2008 18.8769C16.8132 18.9576 16.4116 19 16 19C15.5759 19 15.1624 18.955 14.7639 18.8694L15.2715 18.3618L14.1547 17.245L13.1423 18.2573C12.3835 17.8328 11.7288 17.2443 11.2261 16.5399L12.3358 17.6497L13.4476 16.5379L12.3358 15.4261L11.2244 16.5375C11.025 16.2578 10.8495 15.9598 10.701 15.6466L11.6287 14.7189L10.5171 13.6073L10.1923 13.9322C10.1572 13.6728 10.139 13.408 10.139 13.139C10.139 12.7275 10.1815 12.3258 10.2622 11.9382L10.5171 12.1931L11.6127 11.0975L10.8505 10.3379C11.0141 10.0378 11.2031 9.75366 11.4147 9.48827L12.3198 10.3904L13.4399 9.27036L12.5608 8.3927C12.8383 8.1913 13.1341 8.01363 13.4453 7.86268L14.147 8.56325L15.2663 7.44392L15.1602 7.33779C15.4345 7.29844 15.7149 7.27808 16 7.27808C16.269 7.27808 16.5338 7.2962 16.7932 7.33129L16.6805 7.44392L17.7921 8.55551L18.5076 7.84007C18.8208 7.98856 19.1188 8.164 19.3985 8.3634L18.4992 9.26262L19.611 10.3744L20.546 9.43946C20.76 9.70216 20.9518 9.98376 21.1183 10.2814ZM20.7261 16.5448L19.6135 15.434L18.499 16.5486L19.6125 17.6583L20.7261 16.5448ZM11.2242 12.9002L12.3358 14.0118L13.4345 12.9131L12.321 11.8034L11.2242 12.9002ZM13.0282 11.0963L14.1416 12.206L15.2601 11.0876L14.1476 9.97689L13.0282 11.0963ZM14.8547 9.26978L15.9672 10.3805L17.085 9.26262L15.9734 8.15102L14.8547 9.26978ZM16.6748 11.087L17.7876 12.1979L18.9039 11.0815L17.7921 9.96973L16.6748 11.087ZM14.8499 12.9119L15.9636 14.0218L17.0804 12.905L15.9677 11.7941L14.8499 12.9119ZM13.0429 14.7189L14.1547 15.8307L15.2565 14.7289L14.1428 13.619L13.0429 14.7189ZM20.7279 12.9054L19.611 11.7886L18.4952 12.9044L19.613 14.0203L20.7279 12.9054ZM18.9058 14.7275L17.7881 13.6115L16.6719 14.7277L17.7906 15.8426L18.9058 14.7275ZM17.0835 16.5498L15.9648 15.4348L14.8618 16.5379L15.9786 17.6547L17.0835 16.5498Z" fill="#6D4534"/>
</svg>

<svg xmlns="http://www.w3.org/2000/svg" width="32" height="32" fill="none"><path fill="#44911B" d="M17.107 19.75h-2v8.228c-.755-1.844-2.56-3.158-4.67-3.158h-2.07a.28.28 0 0 0-.28.28v.42c0 2.4 1.95 4.35 4.26 4.37l2.88.01a.245.245 0 0 0 .097-.02h1.783v-.006a.28.28 0 0 0 .12.026h2.07c2.7 0 4.9-2.15 5.04-4.81a.253.253 0 0 0-.25-.27l-2.88.01c-1.92.017-3.59 1.365-4.1 3.197V19.75Z"/><path fill="#FCD53F" d="M23.846 11.78c1.91.53 3.23 1.6 3.1 2.67-.13 1.07-1.66 1.78-3.63 1.84 1.32 1.48 1.85 3.1 1.15 3.93-.69.82-2.36.58-4.04-.45.3 1.96-.15 3.61-1.18 3.92-1.03.31-2.3-.8-3.15-2.58-.82 1.81-2.08 2.95-3.12 2.65-1.03-.3-1.5-1.93-1.24-3.88-1.67 1.07-3.35 1.34-4.06.52-.71-.82-.21-2.43 1.07-3.93-1.99-.02-3.54-.71-3.69-1.78-.15-1.07 1.15-2.15 3.04-2.71-1.66-1.09-2.58-2.52-2.13-3.49.47-1 2.21-1.2 4.15-.58-.83-1.85-.84-3.61.09-4.19.89-.56 2.38.15 3.64 1.6.34-1.89 1.25-3.25 2.31-3.22.98.01 1.8 1.21 2.13 2.91 1.19-1.27 2.53-1.86 3.37-1.35.92.55.95 2.24.19 4.06 1.89-.6 3.58-.42 4.05.55.47.96-.42 2.4-2.05 3.51Z"/><path fill="#8C5543" d="M16 19a5.861 5.861 0 1 0 0-11.722A5.861 5.861 0 0 0 16 19Z"/><path fill="#6D4534" d="m21.118 10.281-.8.8 1.117 1.117.295-.295a5.888 5.888 0 0 1 .071 2.076l-.366-.366-1.114 1.114.96.958a5.887 5.887 0 0 1-2.462 2.594l-1.027-1.023-1.106 1.106.515.515a5.886 5.886 0 0 1-2.437-.008l.508-.507-1.117-1.117-1.013 1.012a5.889 5.889 0 0 1-1.916-1.717l1.11 1.11 1.112-1.112-1.112-1.112-1.112 1.112a5.86 5.86 0 0 1-.523-.891l.928-.928-1.112-1.112-.325.325a5.913 5.913 0 0 1 .07-1.994l.255.255 1.096-1.095-.762-.76c.163-.3.352-.584.564-.85l.905.902 1.12-1.12-.88-.877a5.86 5.86 0 0 1 .885-.53l.702.7 1.12-1.12-.107-.105a5.912 5.912 0 0 1 1.633-.007l-.113.113 1.112 1.112.716-.716c.313.149.61.324.89.523l-.899.9 1.112 1.111.935-.935c.214.263.406.545.572.842Zm-.392 6.264-1.113-1.111-1.114 1.115 1.114 1.11 1.113-1.114ZM11.224 12.9l1.112 1.112 1.098-1.099-1.113-1.11-1.097 1.097Zm1.804-1.804 1.114 1.11 1.118-1.118-1.112-1.111-1.12 1.12Zm1.827-1.826 1.112 1.11 1.118-1.117-1.112-1.112-1.118 1.119Zm1.82 1.817 1.113 1.11 1.116-1.115-1.112-1.112-1.117 1.117Zm-1.825 1.825 1.114 1.11 1.116-1.117-1.112-1.11-1.118 1.117Zm-1.807 1.807 1.112 1.112 1.102-1.102-1.114-1.11-1.1 1.1Zm7.685-1.814L19.61 11.79l-1.116 1.115 1.118 1.116 1.115-1.115Zm-1.822 1.822-1.118-1.116-1.116 1.117 1.119 1.115 1.115-1.116Zm-1.822 1.823-1.12-1.115-1.102 1.103 1.117 1.117 1.105-1.105Z"/></svg>
